X: 322
T:Dancing Eyes
R:jig
C:Sean Ryan
S: Seamus Connolly
M:6/8
L:1/8
K:G
G,B,D GBd|cAA BAG|AFD fed|cAG FDC|
B,2D GBd|cAG FGA|d^cd fed|cAF G2:||
D|GBd gag|f/g/ag fdc|B2d cAA|BAG AFD|
GBd gag|f/g/ag fdc|B2d cAF|AGF G2:||
